X:13
T:CLUTHA/ Highland lassie 3 X THRU !!      # 3
M:2/4
L:1/16
C:Jim Johnstone
S:J. Chambers ABC Dance Tunes
R:Reel
K:G
D2 \
| "G"G2G2 G2AB | "Em"G2G2 G2AB | "C"c3B "Am"A2G2 | "D7"FGAG FDEF |!
| "G"G2G2 G2AB | "Em"G2G2 G2AB | "C"c3d "D7"edef | "G"g2g2 g2 |!
d2 \
| "G"g3d B2d2 | "C"c2c2 "Am"cABc | "A7"a3e ^c2e2 | "D"d2d2 "D7"d2ef |!
| "G"g3d B2d2 | "C"c2c2 "Am"c2e2 | "G"d2B2 "D7"c2A2 | "G"G2G2 G2 |]
